!!!!SEGMENT: pl-kk--kk-i-473--006_kalous-vaclav--missa-solemnis-osanna.krn
!!!cenid: 17xx:1877
!!!COM: Kalous, Václav
!!!COM-rismid: pe30001658
!!!CDT: 1715-1786
!!!CNT: Czech
!!!OTL: Missa Solemnis – Osanna
!!!PDT:
!!!AGN: Sacred; Mass
!!!SMS-siglum: PL-Kk
!!!SMS-shelfmark: Kk.I.473
!!!SMS-shelfwork: 001-006 M
!!!SMS-variant:
!!!SMS-altvar:
!!!NIFC-rismid: 1001139984
!!!URL-scan: http://repozytorium.nifc.pl/skany/pl-kk-nut--i-473
!!!ONB-nifc: UWAGA: części Mszy: 1. Kyrie, 2. Gloria, 3. Patrem, 4. Sanctus, 5. Benedictus, 6. Osanna, 7. Agnus, 8. Dona
**kern	**fb	**kern	**kern	**kern	**kern	**kern	**text	**kern	**text	**kern	**text	**kern	**text	**kern	**kern	**kern	**kern
*part13	*	*part12	*part11	*part10	*part9	*part8	*part8	*part7	*part7	*part6	*part6	*part5	*part5	*part4	*part3	*part2	*part1
*group	*	*group3	*group3	*group3	*group3	*group2	*group2	*group2	*group2	*group2	*group2	*group2	*group2	*group1	*group1	*group1	*group1
*staff13	*	*staff12	*staff11	*staff10	*staff9	*staff8	*staff8	*staff7	*staff7	*staff6	*staff6	*staff5	*staff5	*staff4	*staff3	*staff2	*staff1
*I"Organo.	*	*I"Alto Viola II.do w Tromb:	*I"Alto Viola I.ma vel Tromb.	*I"Violino 2do	*I"Violino Primo	*I"Baſso	*	*I"Tenore	*	*I"Alto Conc: to	*	*I"Canto Concto.	*	*I"Clarino 2:do Ex D.	*I"Clarino Primo in D.	*I"Oboe Secundo.	*I"Oboe Primo
*I'org	*	*I'vla 2	*I'vla 1	*I'vl 2	*I'vl 1	*I'B	*	*I'T	*	*I'A	*	*I'S	*	*I'clno 2	*I'clno 1	*I'ob 2	*I'ob 1
*clefF4	*	*clefC3	*clefC3	*clefG2	*clefG2	*clefF4	*	*clefC4	*	*clefC3	*	*clefC1	*	*clefG2	*clefG2	*clefG2	*clefG2
*	*	*	*	*	*	*	*	*	*	*	*	*	*	*ITrd-1c-2	*ITrd-1c-2	*	*
*k[f#c#]	*	*k[f#c#]	*k[f#c#]	*k[f#c#]	*k[f#c#]	*k[f#c#]	*	*k[f#c#]	*	*k[f#c#]	*	*k[f#c#]	*	*k[f#c#]	*k[f#c#]	*k[f#c#]	*k[f#c#]
*M4/4	*	*M4/4	*M4/4	*M4/4	*M4/4	*M4/4	*	*M4/4	*	*M4/4	*	*M4/4	*	*M4/4	*M4/4	*M4/4	*M4/4
*met(c)	*	*met(c)	*met(c)	*met(c)	*met(c)	*met(c)	*	*met(c)	*	*met(c)	*	*met(c)	*	*met(c)	*met(c)	*met(c)	*met(c)
=1	=1	=1	=1	=1	=1	=1	=1	=1	=1	=1	=1	=1	=1	=1	=1	=1	=1
*	*above	*	*	*	*	*	*	*	*	*	*	*	*	*	*	*	*
*2\right	*	*2\right	*2\right	*2\right	*2\right	*2\right	*	*2\right	*	*2\right	*	*2\right	*	*2\right	*2\right	*2\right	*2\right
!LO:TX:a:t=P:problem:w źródle oznaczenie metrum "C."	!	!LO:TX:a:t=P:problem:w źródle oznaczenie metrum "C."	!LO:TX:a:t=P:problem:w źródle oznaczenie metrum "C."	!	!	!LO:TX:a:t=P:problem:w źródle oznaczenie metrum "C."	!	!LO:TX:a:t=P:problem:w źródle oznaczenie metrum "C."	!	!LO:TX:a:t=P:problem:w źródle oznaczenie metrum "C."	!	!LO:TX:a:t=P:problem:w źródle oznaczenie metrum "C."	!	!LO:TX:a:t=P:problem:w źródle oznaczenie metrum "C."	!LO:TX:a:t=P:problem:w źródle oznaczenie metrum "C."	!	!LO:TX:a:t=P:problem:w źródle oznaczenie metrum "C."
!LO:TX:a:i:t=T&colon;	!	!	!	!	!	!	!	!	!	!	!	!	!	!	!	!	!
!LO:TX:a:i:t=all[egr]o	!	!	!LO:TX:a:i:t=all[egr]o&colon;	!	!LO:TX:a:i:t=all[egr]o	!	!	!	!	!	!	!	!	!	!LO:TX:a:i:t=all[egr]o	!	!
!	!	!LO:TX:a:i:t=all[egr]o&colon;	!LO:TX:a:i:t=Tromb.	!LO:TX:a:i:t=All[egr]o	!	!LO:TX:a:i:t=all[egr]o	!	!	!	!LO:TX:t=P:problem:2\right:global	!	!	!	!LO:TX:b:i:t=Osanna	!LO:TX:b:i:t=Osanna	!LO:TX:b:i:t=Osanna	!LO:TX:b:i:t=Osanna
!LO:TX:b:i:t=Osanna	!	!LO:TX:b:i:t=Osanna	!LO:TX:b:i:t=Osanna	!	!	!	!	!LO:TX:a:i:t=All[egr]o	!	!LO:TX:a:i:t=all[egr]o	!	!LO:TX:a:i:t=all[egr]o.	!	!LO:TX:a:i:t=all[egr]o	!	!LO:TX:a:i:t=All[egr]o	!LO:TX:a:i:t=all[egr]o
!	!	!	!	!	!	!	!	!LO:TX:a:t=P:problem:w źródle wysokość i kolejność znaków przykluczowych - F# c#	!	!	!	!LO:TX:a:t=P:problem:w źródle wysokość i kolejność znaków przykluczowych - f# cc#	!	!	!	!	!
!	!	!LO:TX:a:t=P:problem:w źródle "Osanna" zapisane przed pierwszym taktem, na pięciolinii	!	!LO:TX:a:t=P:problem:w źródle "Osanna" zapisane przed pierwszym taktem, na pięciolinii	!LO:TX:a:t=P:problem:w źródle "Osanna" zapisane przed pierwszym taktem, na pięciolinii	!	!	!	!	!	!	!	!	!	!	!	!
!	!	!	!	!LO:TX:b:i:t=Osanna	!LO:TX:b:i:t=Osanna	!	!	!	!	!	!	!	!	!	!	!	!
2D\	.	2f#\	2a\	2f#/	2dd\	2D\	O-	2f#\	O-	2a\	O-	2dd\	O-	2dd\	2ff#\	2dd\	2ff#\
2A\	.	8e\L	2a\	4e/	8cc#\L	2A\	-ſan-	8e\	-ſan-	2a\	-ſan-	8cc#\L	-ſan-	2a/	2ee\	4cc#\	4ee\
.	.	8c#\	.	.	8a\	.	.	8c#\	-na	.	.	8a\J	.	.	.	.	.
.	.	8d\	.	8r	8b\	.	.	8d\	in	.	.	8b\L	-na	.	.	8r	8r
.	.	8e\J	.	8a/	8cc#\J	.	.	8e\	ex-	.	.	8cc#\J	.	.	.	8ee\	8aa\
=2	=2	=2	=2	=2	=2	=2	=2	=2	=2	=2	=2	=2	=2	=2	=2	=2	=2
4F#\	X 6	4d\	8a\	4a/	8dd\L	4F#\	-na	8d\	-cel-	8a\	-na	8dd\	in	4dd\	4ff#\	4dd\	4aa\
.	.	.	4a\	.	8a\	.	.	8d\	-sis	4a\	in	8a\	ex-	.	.	.	.
4C#/	X 6	8c#\L	.	8r	8ee\	8C#/	in	8c#\	in	.	.	8ee\	-cel-	4ee\	4aa\	4ee\	8r
.	.	8e\J	8a\	8g/	8a\J	8C#/	ex-	8e\	ex-	8a\	ex-	8a\	-sis	.	.	.	8gg\
8D\L	.	4A/	8f#\L	8f#/L	8ff#\L	8D\L	-cel-	4A/	-cel-	8f#\L	-cel-	8ff#\	in	4.dd\	8ff#\L	8a\L	2ff#\
8E\	.	.	8g\	8g/	8ee\J	8E\	.	.	.	8g\	.	8ee\	ex-	.	8gg\J	8cc#\J	.
8F#\	.	8f#\L	8a\	8a/	4dd\	8F#\	.	8f#\L	.	8a\	.	4dd\	-cel-	.	8aa\L	8dd\L	.
8G\J	.	8e\J	8b\J	8b/J	.	8G\J	.	8e\J	.	8b\J	.	.	.	8dd\	16gg\L	16ee\L	.
.	.	.	.	.	.	.	.	.	.	.	.	.	.	.	16ff#\JJ	16dd\JJ	.
=3	=3	=3	=3	=3	=3	=3	=3	=3	=3	=3	=3	=3	=3	=3	=3	=3	=3
4A\	.	4e\	4a\	4e/	4cc#\	4A\	-sis	4e\	-sis	4a\	-sis	4cc#\	-sis	4a/	4ee\	4cc#\	4ee\
4r	.	4r	4r	8r	8r	4r	.	4r	.	8r	.	8r	.	4r	4r	4r	4r
.	.	.	.	8cc#\	8ee\	.	.	.	.	8cc#\	O-	8ee\	O-	.	.	.	.
2r	.	2r	2r	8b/L	4dd\	2r	.	2r	.	8b\	-ſan-	4dd\	-ſan-	2r	2r	2r	2r
.	.	.	.	8e/	.	.	.	.	.	8e\	-na	.	.	.	.	.	.
.	.	.	.	8a/	4cc#\	.	.	.	.	8a\	in	4cc#\	-na	.	.	.	.
.	.	.	.	8e/J	.	.	.	.	.	8e\	ex-	.	.	.	.	.	.
=4	=4	=4	=4	=4	=4	=4	=4	=4	=4	=4	=4	=4	=4	=4	=4	=4	=4
8r	.	8r	4r	4g#X/	4b/	8r	.	8r	.	4g#X\	-cel-	4b\	in	8r	8r	4r	4r
8E/L	X #	4e\	.	.	.	8E\	O-	8e\	O-	.	.	.	.	8ee\L	8gg#X\L	.	.
8C#/	X 6	.	4e\	4e/	8a/L	8C#/	-ſan-	8e\	-ſan-	4e\	.	8a\	ex-	8ee\	8aa\	8r	4ee\
8GG#X/J	X 6	8e\	.	.	8b/J	8GG#X/	-(n)a	8e\	-(n)a	.	.	8b\	-cel-	8ee\J	8bb\J	8b\	.
8AA/L	.	8e\L	4e\	4e/	8cc#\L	8AA/	in	8e\	in	4e\	-sis	8cc#\L	.	4ee\	4aa\	8cc#\L	4.ee\
8BB/	.	8d\	.	.	8dd\	8BB/	ex-	8d\	ex-	.	.	8dd\J	.	.	.	8dd\J	.
8C#/	.	8c#\	4a\	4cc#\	8ee\	8C#/L	-cel-	8c#\L	-cel-	8a\	in	8ee\L	.	8r	8r	8ee\L	.
8D/J	.	8B\J	.	.	8aa\J	8D/J	.	8B\J	.	8a\	ex-	16dd\L	.	8ff#\	8aa\	16dd\L	8ff#\
.	.	.	.	.	.	.	.	.	.	.	.	16cc#\JJ	.	.	.	16cc#\JJ	.
!	!	!	!	!	!	!	!	!	!	!LO:LB:g=original	!	!	!	!	!	!	!
=5	=5	=5	=5	=5	=5	=5	=5	=5	=5	=5	=5	=5	=5	=5	=5	=5	=5
!	!	!	!	!	!	!	!	!	!	!	!	!LO:SIC:custos dd:v	!	!	!	!	!
4E\	X #	4B/	4.g#X\	[>4b\	4gg#X\	8E\	-sis	4B\	-sis	4.g#X\	-cel-	4b\	-sis	4ee\	4gg#X\	4.b\	4.ee\
.	.	.	.	.	.	8E\	O-	.	.	.	.	.	.	.	.	.	.
*	*	*	*	*	*	*	*	*	*	*	*	*	*ij	*	*	*	*
!	!	!	!	!	!	!	!	!	!	!	!	!LO:LB:g=original	!	!	!	!	!
8B\L	X 3	8r	.	16b\LL]	4ddd\	8B\	-ſan-	8r	.	.	.	8dd\	in	8r	8r	.	.
.	.	.	.	16gg#X\	.	.	.	.	.	.	.	.	.	.	.	.	.
8E\J	X #	8e\	8a\	16aa\	.	8E\	-(n)a	4e\	in	16a\LL	.	8dd\	ex-	8dd\	8gg#\	8b\	8dd\
.	.	.	.	16bb\JJ	.	.	.	.	.	16b\JJ	.	.	.	.	.	.	.
8A\L	.	8e\	8a\	8aa\	8ccc#\L	8A\	in	.	.	8a,\	-sis	4cc#\	-cel-	8ee\	8aa\	4a/	4cc#\
*	*	*	*	*	*	*	*	*	*	*	*ij	*	*	*	*	*	*
8F#\	.	4f#\	4a\	4aa\	16bb\L	8F#\	ex-	8f#\	ex-	8a\	ex-	.	.	4ff#\	4aa\	.	.
.	.	.	.	.	16aa\JJ	.	.	.	.	.	.	.	.	.	.	.	.
!	!	!	!	!	!	!LO:LB:g=original	!	!	!	!	!	!	!	!	!	!	!
8D\	6 5	.	.	.	4bb\	8D\L	-cel-	8f#\L	-cel-	8a\L	-cel-	4b\	.	.	.	4g#X/	4b\
8E\J	X #	8e\	8g#X\	8gg#X\	.	8E\J	.	8e\J	.	8g#X\J	.	.	.	8ee\	8gg#X\	.	.
!	!	!LO:LB:g=original	!	!	!	!	!	!LO:LB:g=original	!	!	!	!	!	!	!	!	!
=6	=6	=6	=6	=6	=6	=6	=6	=6	=6	=6	=6	=6	=6	=6	=6	=6	=6
4AA/	.	4e\	4a\	4aa\	4aa\	4AA/	-sis	4e\	-sis	4a\	-sis	4a\	-sis	4ee\	4aa\	4a/	4a/
*	*	*	*	*	*	*	*	*	*	*	*Xij	*	*Xij	*	*	*	*
4r	.	4r	4r	8r	8r	4r	.	4r	.	8r	.	8r	.	4r	4r	4r	4r
.	.	.	.	8ff#\	8aa\	.	.	.	.	8a\	O-	8ff#\	O-	.	.	.	.
!	!	!	!	!	!LO:LB:g=original	!	!	!	!	!	!	!	!	!	!	!	!
2r	.	2r	2r	8ee\L	4gg\	2r	.	2r	.	4gn\	-ſan-	8ee\	-ſan-	2r	2r	2r	2r
.	.	.	.	8a\	.	.	.	.	.	.	.	8a\	-na	.	.	.	.
.	.	.	.	8dd\	4ff#\	.	.	.	.	4f#\	.	8dd\	in	.	.	.	.
.	.	.	.	8a\J	.	.	.	.	.	.	.	8a\	ex-	.	.	.	.
!	!	!	!	!LO:LB:g=original	!	!	!	!	!	!	!	!	!	!	!	!LO:LB:g=original	!
=7	=7	=7	=7	=7	=7	=7	=7	=7	=7	=7	=7	=7	=7	=7	=7	=7	=7
8r	.	8r	8r	4cc#\	4ee\	8r	.	8r	.	4e\	-na	4cc#\	-cel-	8r	8r	4r	4r
8A\L	.	4A/	8e\L	.	.	8A\	O-	8A\	O-	.	.	.	.	8a/L	8ee\L	.	.
8F#\	X 6	.	8d\	4a/	8dd\L	8F#\	-ſan-	8A\	-ſan-	8d\	in	4a\	.	8dd/	8ff#\	8r	4aa\
8C#\J	X 6	8g\	8e\J	.	8ee\J	8C#/	-na	8g\	-na	8e\	ex-	.	.	8a/J	8ee\J	8ee\	.
!LO:LB:g=original	!	!	!	!	!	!	!	!	!	!	!	!	!	!	!	!	!
8D\L	.	8f#\L	8f#\L	4a/	8ff#\L	8D\	in	8f#\	in	8f#\L	-cel-	4a\	-sis	4dd\	8ff#\L	8ff#\L	4.aa\
8E\	.	8e\	8g\J	.	8gg\J	8E\	ex-	8e\	ex-	8g\J	.	.	.	.	8gg\J	8gg\J	.
*	*	*	*	*	*	*	*	*	*	*	*	*	*ij	*	*	*	*
8F#\	.	8d\	8a\L	4dd\	8aa\L	8F#\L	-cel-	8d\L	-cel-	8b\L	.	8dd\	in	8r	8aa\L	8aa\L	.
8G\J	.	8e\J	16g\L	.	16gg\L	8G\J	.	8e\J	.	16g\L	.	8dd\	ex-	8dd\	16gg\L	16gg\L	8bb\
.	.	.	16f#\JJ	.	16ff#\JJ	.	.	.	.	16f#\JJ	.	.	.	.	16ff#\JJ	16ff#\JJ	.
!	!	!	!	!	!	!	!	!	!	!	!	!	!	!	!LO:LB:g=original	!	!
=8	=8	=8	=8	=8	=8	=8	=8	=8	=8	=8	=8	=8	=8	=8	=8	=8	=8
4A\	.	4e\	4e\	4.cc#\	4ee\	8A\	-sis	4e\	-sis	4e\	-sis	4.cc#\	-cel-	4a/	4ee\	4.ee\	4.aa\
.	.	.	.	.	.	8A\	o-	.	.	.	.	.	.	.	.	.	.
8e\L	X 3	4e\	4g\	.	4gg\	8e\	-san-	8e\	in	8g\	in	.	.	8r	8gg\L	.	.
8A\J	X 7	.	.	16dd\LL	.	8A\	-na	8e\	ex-	8g\	ex-	16dd\LL	.	8ee\	8gg\J	8ee\	8gg\
.	.	.	.	16ee\JJ	.	.	.	.	.	.	.	16ee\JJ	.	.	.	.	.
8d\L	.	8e\L	8f#\	8dd\L	8ff#\	8d\	in	8e\L	-cel-	8f#\	-cel-	8dd\	-sis	4dd\	4ff#\	4dd\	4ff#\
8B\	.	8f#\J	4b\	8ff#\J	4ddd\	8B\	ex-	8f#\J	.	4b\	.	8dd\	in	.	.	.	.
8G\	6 5	4e\	.	4ee\	.	8G\L	-cel-	4e\	-sis	.	.	8dd\L	ex-	4a/	4ee\	4cc#\	4ee\
8A\J	.	.	8a\	.	8ccc#\	8A\J	.	.	.	8a\	.	8cc#\J	.	.	.	.	.
!	!	!	!	!	!	!	!	!	!	!	!	!	!	!	!	!	!LO:LB:g=original
=9	=9	=9	=9	=9	=9	=9	=9	=9	=9	=9	=9	=9	=9	=9	=9	=9	=9
4D/	.	4e\	4a\	4ff#\	4ddd\	4D\	-sis	4d\	.	4a,\	-sis,	4dd\	-cel-	4f#/	4dd\	4dd\	4dd\
4D/	.	4e\	4a\	4a/	4dd\	8D\	in	8d\	in	8a\	in	8dd\	-sis	8d/L	8d/L	4dd\	4aa\
.	.	.	.	.	.	8D\	ex-	8d\	ex-	8a\	ex-	8dd\	in	8d/J	8d/J	.	.
2D/	6 4	2e\	2g\	2g/	4b\	2D\	-cel-	2d\	-cel-	2g\	-cel-	4b\	ex-	4d/	4d/	4b\	2gg\
.	7 2	.	.	.	4cc#\	.	.	.	.	.	.	4cc#\	-cel-	8d/L	8d/L	4cc#\	.
.	.	.	.	.	.	.	.	.	.	.	.	.	.	8d/J	8d/J	.	.
=10	=10	=10	=10	=10	=10	=10	=10	=10	=10	=10	=10	=10	=10	=10	=10	=10	=10
2D/	.	2d\	1f#	2f#/	2dd\	2D\	-sis	2d\	-sis.	2f#\	-sis	2dd\	-sis	1d;	2d/	2dd\	2ff#\
*	*	*	*	*	*	*	*	*	*	*	*	*	*Xij	*	*	*	*
2r;	.	2r	.	2r;	2r	2r	.	2r	.	2r	.	2r	.	.	2r	2r	2r
==	==	==	==	==	==	==	==	==	==	==	==	==	==	==	==	==	==
*-	*-	*-	*-	*-	*-	*-	*-	*-	*-	*-	*-	*-	*-	*-	*-	*-	*-
!!!system-decoration: [g1][g2][g3]s13
!!!RDF**kern: > = above
!!!RDF**kern: < = below
!!!EED: Antoni Szymański
!!!EST: 2021-01-09
!!!ENC: Marcin Jachim
!!!END: 2021-01-06
